X:1
T:Home Sweet Home
T:Home Sweet Home
C:Motley Crue
%%score { 1 | ( 2 3 ) }
L:1/8
Q:1/4=65
M:4/4
K:C
V:1 treble nm="Piano" snm="Pno."
V:2 bass 
V:3 bass 
V:1
 [EG]C[EG]C C/G/E/C/ [EG]C | [EG]B,[EG]B, B,/G/E/B,/ [EG]B, | [EG]_B,[EG]B, B,/G/E/B,/ [EG]B, | %3
 [FA]C[FA]C [FA]2 !arpeggio![cfa]2 |: [EG]C[EG]C C/G/E/C/ [EG]C | [EG]B,[EG]B, B,/G/E/B,/ [EG]B, | %6
 [EG]_B,[EG]B, B,/G/E/B,/ [EG]B, |1,2 [FA]C[FA]C C/A/F/C/ [FA]C :|3 [CFA]8 | z8 |: %10
 [_E,^G,C]2 [E,G,C] z/ [E,G,C][E,G,C] z [E,G,C]/ z | %11
 [F,_B,D]2 [F,B,D] z/ [F,B,D][F,B,D] z [F,B,D]/ z | [G,CE]2 [G,CE] z/ [G,DE][G,CE] z [G,CE]/ z |1 %13
 x8 :|2 [G,CE]8 || z8 |: [EG]C[EG]C C/G/E/C/ [EG]C | [EG]B,[EG]B, B,/G/E/B,/ [EG]B, | %18
 [EG]_B,[EG]B, B,/G/E/B,/ [EG]B, | [FA]C[FA]C C/A/F/C/ [FA]C :: %20
 [_E,^G,C]2 [E,G,C] z/ [E,G,C][E,G,C] z [E,G,C]/ z | %21
 [F,_B,D]2 [F,B,D] z/ [F,B,D][F,B,D] z [F,B,D]/ z |1 [G,CE]2 [G,CE] z/ [G,DE][G,CE] z [G,CE]/ z | %23
 x8 :|2 [G,CE]8 || z8 | [eg]c[eg]c c/g/e/c/ [eg]c | [eg]B[eg]B B/g/e/B/ [eg]B | %28
 [eg]^A[eg]A A/g/e/A/ [eg]A | [fa]c[fa]c [fa]4 |] %30
V:2
 z2 G,6 | z2 G,6 | z2 G,6 | z2 [F,A,]6 |: z2 G,6 | z2 G,6 | z2 G,6 |1,2 z2 [F,A,]6 :|3 [F,,,F,,]8 | %9
 z8 |: ^G,,,^G,, z G,, z G,,G,,G,, | ^A,,,^A,, z A,, z A,,A,,A,, | C,,C, z C, z C,C,C, |1 x8 :|2 %14
 [C,,C,]8 || z8 |: z2 G,6 | z2 G,6 | z2 G,6 | z2 [F,A,]6 :: ^G,,,^G,, z G,, z G,,G,,G,, | %21
 ^A,,,^A,, z A,, z A,,A,,A,, |1 C,,C, z C, z C,C,C, | x8 :|2 [C,,C,]8 || z8 | [CG]8 | [B,G]8 | %28
 [_B,G]8 | [F,C]8 |] %30
V:3
 [C,,C,]8 | [B,,,B,,]8 | [_B,,,_B,,]8 | [F,,,F,,]8 |: [C,,C,]8 | [B,,,B,,]8 | [_B,,,_B,,]8 |1,2 %7
 [F,,,F,,]8 :|3 x8 | x8 |: x8 | x8 | x8 |1 x8 :|2 x8 || x8 |: [C,,C,]8 | [B,,,B,,]8 | %18
 [_B,,,_B,,]8 | [F,,,F,,]8 :: x8 | x8 |1 x8 | x8 :|2 x8 || x8 | x8 | x8 | x8 | x8 |] %30

